Papirus/32x32/apps/gnome-mpv.svg

<svg xmlns="http://www.w3.org/2000/svg" width="32" height="32" version="1.0" viewBox="0 0 32 32" style="enable-background:new">
 <rect style="opacity:0.2;stroke:#000000;stroke-width:0;stroke-linecap:round;stroke-linejoin:round" width="30" height="24" x="1" y="5" rx="2.143" ry="2.182"/>
 <rect width="30" height="24" x="1" y="4" rx="2.143" ry="2.182" style="fill:#2769bc;stroke:#000000;stroke-width:0;stroke-linecap:round;stroke-linejoin:round"/>
 <path style="opacity:0.2" d="m 16,9 a 5.9999996,5.9999996 0 0 0 -6,6 5.9999996,5.9999996 0 0 0 6,6 5.9999996,5.9999996 0 0 0 6,-6 5.9999996,5.9999996 0 0 0 -6,-6 z m -2,3 h 0.505859 0.05274 c 0.09751,-9e-4 0.192487,0.02244 0.277344,0.07422 l 3.902343,2.402343 C 18.911493,14.579694 19,14.789069 19,15 c 0,0.21093 -0.08851,0.422256 -0.261719,0.525391 l -3.902343,2.40039 C 14.751077,17.977501 14.656104,18.0006 14.558594,18 H 14.505859 14 Z"/>
 <path d="M 16 8 A 5.9999996 5.9999996 0 0 0 10 14 A 5.9999996 5.9999996 0 0 0 16 20 A 5.9999996 5.9999996 0 0 0 22 14 A 5.9999996 5.9999996 0 0 0 16 8 z M 14 11 L 14.505859 11 L 14.558594 11 C 14.656104 10.9991 14.751081 11.022439 14.835938 11.074219 L 18.738281 13.476562 C 18.911493 13.579694 19 13.789069 19 14 C 19 14.21093 18.911493 14.422256 18.738281 14.525391 L 14.835938 16.925781 C 14.751077 16.977501 14.656104 17.0006 14.558594 17 L 14.505859 17 L 14 17 L 14 11 z" style="fill:#ffffff"/>
 <rect style="opacity:0.5;fill:#ffffff" width="16" height="1" x="8" y="23" rx=".5" ry=".5"/>
 <rect width="3" height="3" x="10" y="23" rx="1.5" ry="1.5" style="opacity:0.2"/>
 <rect style="fill:#ffffff" width="3" height="3" x="10" y="22" rx="1.5" ry="1.5"/>
 <path d="M 3 4 L 3 6 L 5 6 L 5 4 L 3 4 z M 27 4 L 27 6 L 29 6 L 29 4 L 27 4 z M 3 8 L 3 10 L 5 10 L 5 8 L 3 8 z M 27 8 L 27 10 L 29 10 L 29 8 L 27 8 z M 3 12 L 3 14 L 5 14 L 5 12 L 3 12 z M 27 12 L 27 14 L 29 14 L 29 12 L 27 12 z M 3 16 L 3 18 L 5 18 L 5 16 L 3 16 z M 27 16 L 27 18 L 29 18 L 29 16 L 27 16 z M 3 20 L 3 22 L 5 22 L 5 20 L 3 20 z M 27 20 L 27 22 L 29 22 L 29 20 L 27 20 z M 3 24 L 3 26 L 5 26 L 5 24 L 3 24 z M 27 24 L 27 26 L 29 26 L 29 24 L 27 24 z" style="opacity:0.3;stroke:#000000;stroke-width:0;stroke-linecap:round;stroke-linejoin:round"/>
 <path d="M 3.1425781 4 C 1.9554353 4 1 4.9729134 1 6.1816406 L 1 7.1816406 C 1 5.9729134 1.9554353 5 3.1425781 5 L 28.857422 5 C 30.044565 5 31 5.9729134 31 7.1816406 L 31 6.1816406 C 31 4.9729134 30.044565 4 28.857422 4 L 3.1425781 4 z" style="opacity:0.1;fill:#ffffff;stroke:#000000;stroke-width:0;stroke-linecap:round;stroke-linejoin:round"/>
</svg>

<svg xmlns="http://www.w3.org/2000/svg" width="32" height="32" version="1.0">
 <rect style="opacity:0.2" width="30" height="24" x="1" y="5" rx="2" ry="2"/>
 <rect style="fill:#2769bc" width="30" height="24" x="1" y="4" rx="2" ry="2"/>
 <rect style="opacity:0.5;fill:#ffffff" width="16" height="1" x="8" y="23" rx=".5" ry=".5"/>
 <rect style="opacity:0.2" width="3" height="3" x="10" y="23" rx="1.5" ry="1.5"/>
 <rect style="fill:#ffffff" width="3" height="3" x="10" y="22" rx="1.5" ry="1.5"/>
 <path style="opacity:0.3" d="M 3 4 L 3 6 L 5 6 L 5 4 L 3 4 z M 27 4 L 27 6 L 29 6 L 29 4 L 27 4 z M 3 8 L 3 10 L 5 10 L 5 8 L 3 8 z M 27 8 L 27 10 L 29 10 L 29 8 L 27 8 z M 3 12 L 3 14 L 5 14 L 5 12 L 3 12 z M 27 12 L 27 14 L 29 14 L 29 12 L 27 12 z M 3 16 L 3 18 L 5 18 L 5 16 L 3 16 z M 27 16 L 27 18 L 29 18 L 29 16 L 27 16 z M 3 20 L 3 22 L 5 22 L 5 20 L 3 20 z M 27 20 L 27 22 L 29 22 L 29 20 L 27 20 z M 3 24 L 3 26 L 5 26 L 5 24 L 3 24 z M 27 24 L 27 26 L 29 26 L 29 24 L 27 24 z"/>
 <path style="opacity:0.2" d="M 16,9 A 6,6 0 0 0 10,15 6,6 0 0 0 16,21 6,6 0 0 0 22,15 6,6 0 0 0 16,9 Z M 14,12 H 14.506 14.559 C 14.656,11.999 14.751,12.022 14.836,12.074 L 18.738,14.477 C 18.911,14.58 19,14.789 19,15 19,15.211 18.911,15.422 18.738,15.525 L 14.836,17.926 C 14.751,17.978 14.656,18.001 14.559,18 H 14.506 14 Z"/>
 <path style="fill:#ffffff" d="M 16,8 A 6,6 0 0 0 10,14 6,6 0 0 0 16,20 6,6 0 0 0 22,14 6,6 0 0 0 16,8 Z M 14,11 H 14.506 14.559 C 14.656,10.999 14.751,11.022 14.836,11.074 L 18.738,13.477 C 18.911,13.58 19,13.789 19,14 19,14.211 18.911,14.422 18.738,14.525 L 14.836,16.926 C 14.751,16.978 14.656,17.001 14.559,17 H 14.506 14 Z"/>
 <path style="fill:#ffffff;opacity:0.1" d="M 3 4 C 1.892 4 1 4.892 1 6 L 1 7 C 1 5.892 1.892 5 3 5 L 29 5 C 30.108 5 31 5.892 31 7 L 31 6 C 31 4.892 30.108 4 29 4 L 3 4 z"/>
</svg>
